app/dist/common/images/star-equity.svg

<svg height="18" viewBox="0 0 18 18" width="18" xmlns="http://www.w3.org/2000/svg"><path d="m0 0h18v18h-18z" fill="#f0f3fa"/><path d="m9 9v-6l1.49 4.01z" fill="#002d62"/><path d="m9 9v-6l-1.5 4z" fill="#cdcccc"/><path d="m7.5 7h-4.5l6 1.99z" fill="#002d62"/><path d="m10.5 7h4.5l-6 1.99zm-3.82 2.81-3.68-2.81 6 1.98z" fill="#cdcccc"/><path d="m11.28 9.82 3.72-2.82-6 1.98z" fill="#002d62"/><path d="m6.68 9.81-1.37 4.19 3.7-5.02z" fill="#002d62"/><path d="m11.28 9.81 1.37 4.19-3.65-5.02 2.27.83zm-2.28 1.62-3.68 2.57 3.68-5.02z" fill="#cdcccc"/><path d="m9 11.43 3.65 2.57-3.65-5.02z" fill="#002d62"/></svg>

<!-- by TradingView --><svg xmlns="http://www.w3.org/2000/svg" width="18" height="18" viewBox="0 0 18 18"><path fill="#F0F3FA" d="M0 0h18v18H0z"/><path d="M9 9V3l1.49 4.01L9 9Z" fill="#002D62"/><path d="M9 9V3L7.5 7 9 9Z" fill="#CDCCCC"/><path d="M7.5 7H3l6 1.99L7.5 7Z" fill="#002D62"/><path d="M10.5 7H15L9 8.99 10.5 7ZM6.68 9.81 3 7l6 1.98-2.32.83Z" fill="#CDCCCC"/><path d="M11.28 9.82 15 7 9 8.98l2.28.84Z" fill="#002D62"/><path d="M6.68 9.81 5.31 14l3.7-5.02-2.33.83Z" fill="#002D62"/><path d="M11.28 9.81 12.65 14 9 8.98l2.27.83ZM9 11.43 5.32 14 9 8.98v2.45Z" fill="#CDCCCC"/><path d="M9 11.43 12.65 14 9 8.98v2.45Z" fill="#002D62"/></svg>
